src/icons/solid/symbols/time-reverse.svg

<svg width="24" height="24" viewBox="0 0 24 24" fill="none" xmlns="http://www.w3.org/2000/svg">
<g clip-path="url(#clip0_4594_418)">
<path d="M14.2358 1C14.3681 1.00006 14.498 1.03788 14.6099 1.1084C14.7129 1.18058 14.7942 1.27952 14.8452 1.39453C14.8963 1.50986 14.9149 1.63757 14.8989 1.7627L14.7495 3.82812C16.4495 4.36612 17.9718 5.35537 19.1538 6.69043C20.3358 8.02549 21.1334 9.65651 21.4614 11.4092C21.9256 13.9668 21.3582 16.6046 19.8833 18.7451C18.4084 20.8855 16.1455 22.3549 13.5903 22.832C13.0018 22.9431 12.4041 22.9992 11.8052 23C10.4793 23.0005 9.16713 22.7324 7.94775 22.2119C6.72846 21.6914 5.62713 20.9294 4.71045 19.9717C4.62514 19.8827 4.55795 19.777 4.51318 19.6621C4.46855 19.5474 4.44711 19.4248 4.44971 19.3018C4.45233 19.1786 4.47926 19.0572 4.52881 18.9443C4.57838 18.8315 4.64978 18.7289 4.73877 18.6436C4.82767 18.5584 4.93268 18.492 5.04736 18.4473C5.16216 18.4025 5.28454 18.3802 5.40771 18.3828C5.53081 18.3854 5.65239 18.4125 5.76514 18.4619C5.878 18.5115 5.98061 18.5829 6.06592 18.6719C6.8835 19.5538 7.8905 20.2387 9.01123 20.6748C10.132 21.1109 11.337 21.2868 12.5356 21.1895C13.7343 21.0921 14.8955 20.7245 15.9312 20.1133C16.9667 19.5021 17.8496 18.6633 18.5142 17.6611C19.1786 16.659 19.6072 15.5189 19.7671 14.3271C19.927 13.1353 19.8148 11.9222 19.438 10.7803C19.0611 9.63831 18.4292 8.59694 17.5913 7.73438C16.8581 6.97965 15.9836 6.37869 15.019 5.96582L14.6001 5.80078L14.4507 7.66992C14.4406 7.79942 14.3947 7.92382 14.3188 8.0293C14.2431 8.1346 14.1403 8.21769 14.021 8.26855C13.9337 8.29842 13.8418 8.31433 13.7495 8.31543C13.5818 8.31518 13.4195 8.25489 13.2915 8.14648L9.68311 4.9502C9.60155 4.87995 9.53764 4.79146 9.49561 4.69238C9.45363 4.59324 9.43466 4.4854 9.44092 4.37793C9.44725 4.27032 9.47836 4.16494 9.53174 4.07129C9.58505 3.97782 9.65937 3.89811 9.74854 3.83789L13.8618 1.1084C13.9738 1.03782 14.1035 1 14.2358 1Z" fill="#3C3B44"/>
<path d="M11.9546 9.08203C12.0454 9.08081 12.1359 9.09725 12.2202 9.13086C12.3045 9.16448 12.3818 9.21406 12.4468 9.27734C12.5118 9.34068 12.5632 9.41661 12.5991 9.5C12.635 9.58337 12.6545 9.67294 12.6558 9.76367V14.4375C12.6556 14.6234 12.5812 14.8022 12.4497 14.9336L9.646 17.7373C9.51352 17.8671 9.33537 17.9412 9.1499 17.9434C8.96493 17.9393 8.78824 17.8655 8.65479 17.7373C8.52358 17.6059 8.44975 17.4279 8.44971 17.2422C8.44971 17.0565 8.52365 16.8785 8.65479 16.7471L11.2534 14.167V9.78223C11.2535 9.59655 11.3273 9.41846 11.4585 9.28711C11.59 9.15563 11.7687 9.08203 11.9546 9.08203Z" fill="#3C3B44"/>
<path d="M2.33154 11.9141C2.51735 11.7493 2.7614 11.6648 3.00928 11.6797C3.13193 11.6871 3.25229 11.7187 3.36279 11.7725C3.47327 11.8262 3.57228 11.9012 3.65381 11.9932C3.73535 12.0851 3.7982 12.1925 3.83838 12.3086C3.87854 12.4248 3.89456 12.5482 3.88721 12.6709C3.80708 13.8567 3.99585 15.0456 4.43896 16.1484C4.48593 16.2631 4.51021 16.3859 4.50928 16.5098C4.50834 16.6336 4.48275 16.7562 4.43408 16.8701C4.38537 16.9841 4.31403 17.0875 4.2251 17.1738C4.13621 17.26 4.03079 17.3278 3.91553 17.373C3.80549 17.4165 3.68814 17.4388 3.56982 17.4385C3.38261 17.4387 3.19943 17.3823 3.04443 17.2773C2.88961 17.1724 2.76994 17.0233 2.70068 16.8496C2.16338 15.4862 1.93024 14.0214 2.01807 12.5586C2.03299 12.3108 2.14578 12.0788 2.33154 11.9141Z" fill="#3C3B44"/>
<path d="M6.88916 4.75488C7.01426 4.72678 7.14409 4.72492 7.27002 4.74902C7.39608 4.77321 7.51662 4.82302 7.62256 4.89551C7.72831 4.96792 7.81809 5.06136 7.88623 5.16992C7.95441 5.27862 7.99989 5.40047 8.01904 5.52734C8.03818 5.65427 8.03066 5.78418 7.99756 5.9082C7.96449 6.03199 7.9063 6.14769 7.82666 6.24805C7.74687 6.34848 7.64691 6.43191 7.53369 6.49219C6.53147 7.12495 5.68732 7.97897 5.06592 8.98828C4.98293 9.12457 4.86595 9.23691 4.72705 9.31543C4.58796 9.39398 4.43074 9.43586 4.271 9.43652C4.09919 9.43534 3.9307 9.38739 3.78467 9.29688C3.57465 9.16735 3.42448 8.95961 3.3667 8.71973C3.30892 8.47985 3.34807 8.22656 3.47607 8.01562C4.24205 6.7562 5.29244 5.6933 6.54248 4.91211C6.64597 4.83644 6.76408 4.78302 6.88916 4.75488Z" fill="#3C3B44"/>
</g>
<defs>
<clipPath id="clip0_4594_418">
<rect width="24" height="24" fill="white"/>
</clipPath>
</defs>
</svg>

<svg xmlns="http://www.w3.org/2000/svg" width="24" height="24" fill="none" viewBox="0 0 24 24"><g fill="currentColor" clip-path="url(#a)"><path d="M14.236 1c.132 0 .262.038.374.108a.69.69 0 0 1 .289.655l-.15 2.065a9.85 9.85 0 0 1 6.712 7.581A9.834 9.834 0 0 1 11.805 23a9.82 9.82 0 0 1-7.095-3.028.94.94 0 0 1-.181-1.028.94.94 0 0 1 .879-.561.94.94 0 0 1 .658.289 7.945 7.945 0 1 0 8.953-12.706L14.6 5.8l-.15 1.869a.71.71 0 0 1-.429.599.9.9 0 0 1-.272.046.7.7 0 0 1-.458-.169L9.683 4.95a.702.702 0 0 1 .066-1.112l4.113-2.73A.7.7 0 0 1 14.236 1"/><path d="M11.955 9.082a.693.693 0 0 1 .7.682v4.674a.7.7 0 0 1-.205.496l-2.804 2.803a.72.72 0 0 1-.496.206.74.74 0 0 1-.495-.206.7.7 0 0 1 0-.99l2.598-2.58V9.782a.7.7 0 0 1 .702-.7m-9.623 2.832a.937.937 0 0 1 1.555.757 7.9 7.9 0 0 0 .552 3.477.936.936 0 0 1-1.395 1.13.94.94 0 0 1-.343-.428 10.1 10.1 0 0 1-.683-4.291.94.94 0 0 1 .314-.645M6.89 4.755a.936.936 0 0 1 .644 1.737 7.8 7.8 0 0 0-2.468 2.496.94.94 0 0 1-.795.449.935.935 0 0 1-.795-1.421 9.45 9.45 0 0 1 3.066-3.104.9.9 0 0 1 .347-.157"/></g><defs><clipPath id="a"><path fill="currentColor" d="M0 0h24v24H0z"/></clipPath></defs></svg>
